X: 4542
T: Boscastle Breakdown, The
R: hornpipe
M: 4/4
K: Dmajor
|:E2|D2 FA dA F2|D2 GB dB G2|D2 FA dAFA|DdcB AGFE|
D2 FA dA F2|D2 GB dBGB|edcB AGFE|D2 d2 d2:|
|:A/B/c|dAFA dAFA|dBGB dBGA|dAFA dAFA|cAEA cAEA|
dAFA dAFA|dBGB dBGB|edcB AGFE|D2 d2 d2:|

